resources/svg/globe-africa.svg

<svg width="15" height="15" viewBox="0 0 15 15" fill="none" xmlns="http://www.w3.org/2000/svg">
<path fill-rule="evenodd" clip-rule="evenodd" d="M0 7.5C0 3.35786 3.35786 0 7.5 0C11.6421 0 15 3.35786 15 7.5C15 11.6421 11.6421 15 7.5 15C3.35786 15 0 11.6421 0 7.5ZM1 7.5C1 4.24093 3.39856 1.54207 6.52672 1.07238L7.00001 1.30903V1.69099L6.2764 2.0528C6.11699 2.1325 6.01205 2.29105 6.00098 2.46894C5.9899 2.64683 6.07436 2.81717 6.22266 2.91603L7.72266 3.91603C7.80479 3.97079 7.9013 4.00001 8.00001 4.00001H8.50001C8.77615 4.00001 9.00001 3.77615 9.00001 3.50001V3.00001H9.50001V3.50001C9.50001 3.63262 9.55269 3.75979 9.64646 3.85356L10 4.20712V4.7929L9.7929 5.00001H9.11804L7.22362 4.0528C7.08285 3.98241 6.91717 3.98241 6.7764 4.0528L5.88198 4.50001H4.50001C4.27058 4.50001 4.07059 4.65616 4.01494 4.87874L3.51494 6.87874C3.47234 7.04913 3.52227 7.22937 3.64646 7.35356L5.14646 8.85356C5.18446 8.89156 5.22834 8.92319 5.2764 8.94722L6.00001 9.30902V10.5C6.00001 10.6326 6.05269 10.7598 6.14646 10.8536L6.50001 11.2071V12C6.50001 12.0776 6.51808 12.1542 6.5528 12.2236L7.0528 13.2236C7.13749 13.393 7.31062 13.5 7.50001 13.5H8.50001C8.66719 13.5 8.8233 13.4165 8.91604 13.2774L9.91604 11.7774C9.92754 11.7601 9.93795 11.7422 9.94722 11.7236L10.4472 10.7236C10.4819 10.6542 10.5 10.5776 10.5 10.5V9.66668L11.9 7.80001C12.0136 7.6485 12.0319 7.44579 11.9472 7.2764L11.809 7.00001H12.5C12.7762 7.00001 13 6.77615 13 6.50001V6.00001H13.8261C13.9398 6.48153 14 6.98373 14 7.5C14 11.0899 11.0899 14 7.5 14C3.91015 14 1 11.0899 1 7.5Z" fill="black"/>
</svg>

<svg viewBox="0 0 15 15" fill="none" xmlns="http://www.w3.org/2000/svg" fill="currentColor"><path fill-rule="evenodd" clip-rule="evenodd" d="M0 7.5a7.5 7.5 0 1115 0 7.5 7.5 0 01-15 0zm1 0a6.502 6.502 0 015.527-6.428L7 1.31v.382l-.724.362a.5.5 0 00-.053.863l1.5 1A.5.5 0 008 4h.5a.5.5 0 00.5-.5V3h.5v.5a.5.5 0 00.146.354l.354.353v.586L9.793 5h-.675l-1.894-.947a.5.5 0 00-.448 0l-.894.447H4.5a.5.5 0 00-.485.379l-.5 2a.5.5 0 00.131.475l1.5 1.5a.5.5 0 00.13.093L6 9.31v1.19a.5.5 0 00.146.354l.354.353V12a.5.5 0 00.053.224l.5 1a.5.5 0 00.447.276h1a.5.5 0 00.416-.223l1-1.5a.5.5 0 00.031-.053l.5-1a.5.5 0 00.053-.224v-.833L11.9 7.8a.5.5 0 00.047-.524L11.81 7h.691a.5.5 0 00.5-.5V6h.826A6.5 6.5 0 111 7.5z" fill="currentColor"/></svg>
